icons/svg/16x16/subtract squircle/filled.svg

<svg xmlns="http://www.w3.org/2000/svg" width="16" height="16" viewBox="0 0 16 16">
  <path fill-rule="evenodd" d="M10.9648,9 L4.9648,9 C4.4128,9 3.9648,8.553 3.9648,8 C3.9648,7.447 4.4128,7 4.9648,7 L10.9648,7 C11.5168,7 11.9648,7.447 11.9648,8 C11.9648,8.553 11.5168,9 10.9648,9 M14.5408,4.312 C14.2248,2.847 13.0828,1.705 11.6178,1.389 C10.4408,1.134 9.2178,1 7.9648,1 C6.7108,1 5.4888,1.134 4.3118,1.389 C2.8468,1.705 1.7048,2.847 1.3888,4.312 C1.1338,5.488 0.9998,6.711 0.9998,7.965 C0.9998,9.219 1.1338,10.44 1.3888,11.618 C1.7048,13.083 2.8468,14.225 4.3118,14.541 C5.4888,14.796 6.7108,14.93 7.9648,14.93 C9.2178,14.93 10.4408,14.796 11.6178,14.541 C13.0828,14.225 14.2248,13.083 14.5408,11.618 C14.7958,10.44 14.9298,9.219 14.9298,7.965 C14.9298,6.711 14.7958,5.489 14.5408,4.312"/>
</svg>

<svg width="16" height="16" fill="none" xmlns="http://www.w3.org/2000/svg">
  <path fill-rule="evenodd" clip-rule="evenodd" d="M10.965 9h-6a1 1 0 110-2h6a1 1 0 110 2zm3.576-4.688a3.81 3.81 0 00-2.923-2.923A17.243 17.243 0 007.965 1c-1.254 0-2.476.134-3.653.389a3.81 3.81 0 00-2.923 2.923 17.229 17.229 0 00-.39 3.653c0 1.254.135 2.475.39 3.653a3.81 3.81 0 002.923 2.923c1.177.255 2.399.389 3.653.389 1.253 0 2.476-.134 3.653-.389a3.81 3.81 0 002.923-2.923c.255-1.178.389-2.399.389-3.653s-.134-2.476-.39-3.653z" fill="#000"/>
</svg>
